!!!COM:	Bach, Johann Sebastian
!!!CDT:	1685/02/21/-1750/07/28/
!!!OTL@@DE:	Das neugeborne Kindelein
!!!SCT:	BWV 122/6
!!!PC#:	53
!!!ONB: Same as chorale 178
!!!AGN:	chorale
**harm	**kern	**kern	**kern	**kern
*	*ICvox	*ICvox	*ICvox	*ICvox
*	*Ibass	*Itenor	*Ialto	*Isoprn
*	*I"Bass	*I"Tenor	*I"Alto	*I"Soprano
*	*	*oclefC4	*oclefC3	*oclefC1
*	*clefF4	*clefGv2	*clefG2	*clefG2
*k[b-e-]	*k[b-e-]	*k[b-e-]	*k[b-e-]	*k[b-e-]
*g:	*g:	*g:	*g:	*g:
*M3/4	*M3/4	*M3/4	*M3/4	*M3/4
*MM100	*MM100	*MM100	*MM100	*MM100
=1-	=1-	=1-	=1-	=1-
i	4G	4B-	4d	4g
i6	4B-	4d	4g	4g
i	4G	4d	4b-	4g
=2	=2	=2	=2	=2
V65	2F#	2d	2a	2cc
i	4G	4d	4g	4b-
=3	=3	=3	=3	=3
i6	4BB-	4B-	4g	4dd
viio6	4AA	4c	4f#	4cc
i	4GG	4d	4g	4b-
=4	=4	=4	=4	=4
V;	2.D;	2.d;	2.f#;	2.a;
=5	=5	=5	=5	=5
i6	4B-	4d	4g	4dd
i	4G	4g	4b-	4dd
viio7/V	4c#	4g	4b-	4ee
=6	=6	=6	=6	=6
d:i	4d	4f	4a	4ff
vi%65	4D	4B	4a	4ff
viio6	4E	4c#	4g	4ee
=7	=7	=7	=7	=7
i6	4F	4d	4f	4dd
V	2A	2A	2e	2cc#
=8	=8	=8	=8	=8
I;	2.D;	2.A;	2.f#;	2.dd;
=9	=9	=9	=9	=9
g:i	4GG	4B-	4g	4dd
ii%2	4G	4A	4e-X	4cc
V6	4F#	4A	4d	4a
=10	=10	=10	=10	=10
i	4G	4G	4d	4b-
VI6	8GL	8e-L	8gL	8b-L
B-:vii%7	8AL	8eL	8gL	8cc
I	4B-	4d	4f	4dd
=11	=11	=11	=11	=11
ii6	4E-	4e-	4g	4cc
V(64)	4F	4d	4f	4b-
V	4FF	4c	4f	4a
=12	=12	=12	=12	=12
I;	2.BB-;	2.d;	2.f;	2.b-;
=13	=13	=13	=13	=13
I	4B-	4d	4b-	4ff
ii65	4E-	4c	4b-	4gg
V	4F	4c	4a	4ff
=14	=14	=14	=14	=14
g:V6	4F#	4A	4a	4dd
V65	4F#	4A	4a	4cc
i	4G	4d	4g	4b-
=15	=15	=15	=15	=15
iio6	4C	4c	4e-	4a
V(64)	4D	4B-	4d	4g
V	4D	4A	4d	4f#
=16	=16	=16	=16	=16
I;	2.GG;	2.B;	2.d;	2.g;
==	==	==	==	==
*-	*-	*-	*-	*-
!!!YOR1: 371 vierstimmige Choralges&auml;nge von Johann Sebastian Bach, 
!!!YOR2: 4th ed. by Alfred D&ouml;rffel (Leipzig: Breitkopf und H&auml;rtel, 
!!!YOR2: c.1875). 178 pp. Plate "V.A.10".  reprint: J.S. Bach, 371 Four-Part 
!!!YOR4: Chorales (New York: Associated Music Publishers, Inc., c.1940).
!!!SMS: B&H, 4th ed, Alfred D&ouml;rffel, c.1875, plate V.A.10
!!!EED:  Craig Stuart Sapp
!!!EEV:  2009/05/22
